X:1
T:Title
%%score { ( 1 3 ) | ( 2 4 ) }
L:1/8
M:4/4
K:C
V:1 treble nm="Grand Piano"
V:3 treble 
V:2 bass 
V:4 bass 
V:1
 z4 z2[Q:1/4=100] G2 | [Ec]3 [Fd] [Ec]>[CEG] [G,CE]>[G,DF] | G4 z4 | e3 d c2 [FB]2 | [Ec]6 [Gc]2 | %5
 d3 e d>B G>B | d6 z2 | [DGd]2 [EAc]2 [DGB]2 [C^FA]2 | G8 | [Ge]4 [Ed]4 | %10
 [G,CE]2 [EA]2 [EA]2 [EG]2 | [Ge]4 [Ed]4 | [G,CE]2 [CEA]2 [B,FA]2 [B,FG]2 | G>A B>c d2 G2 | %14
 B>c d>e f2 [GB]>[GB] | [Gc]>[GB] [Gc]>d e>d e>f |[M:9/8] g6- g z z |[M:4/4] e3 e d2 d2 | %18
 e2 G,>G, C2 d>d | e2 G,>G, C2 d>d | e2 e2 [Af]2 [Ae]>[Ad] | c2 d2 e2 d>d | e2 d>d e2 [Af]>[Af] | %23
 [Ge]3 [Ge] .[Fcd]2 .[FAd]2[Q:1/4=97][Q:1/4=94][Q:1/4=91][Q:1/4=88][Q:1/4=84][Q:1/4=81][Q:1/4=78] | %24
[M:3/4] [EGc]6 |] %25
V:2
 z4 z2 G,2 | [C,G,]3 [C,G,] [C,G,]>C, C,>C, | C,2 D,2 E,2 F,2 | %3
 [G,CG]3 [G,F][K:bass] [G,E]2 [G,,G,]2 | [C,G,]6 [E,C]2 | %5
 [G,B,G]3 [G,CG] [G,B,G]>[G,DG] [G,B,]>[G,DG] | [G,B,G]2[K:bass] [A,C]2 [G,B,]2 [C,C]2 | %7
 B,,2 C,2 D,2 D,2 | G,2 F,2 E,2 D,2 | [C,C]2 z[K:treble] B[K:bass] [C,G,]2 z[K:treble] c | %10
 C,2 [C,C]2 [C,C]2 [C,C]2 | [C,C]2 z[K:treble] B[K:bass] [C,G,]2 z[K:treble] c | C,2 C,2 D,2 D,2 | %13
 [G,B,F]>[G,CF] [G,DF]>[G,CF] [G,B,F]2 [G,B,F]2 | %14
 [G,DF]>[G,CE] [G,B,G]>[G,CG] [G,DG]2[K:bass] [F,D]>[F,D] | %15
 [E,C]>[D,D] [E,C]>[K:treble][G,B,G] [CG]>[G,B,G] [CG]>[CDG] | %16
[M:9/8] [CEc]2 [DF]- [DF] [CE]2- [CE][K:bass][F,C]>[F,C] | %17
[M:4/4][K:treble] [G,CG]3 [G,CG] [G,B,G]2 [G,B,G]2 | [CG]2 z2 z2 [G,B,G]>[G,B,G] | %19
 [CG]2 z2 z2 [G,B,G]>[G,B,G] | [CA]2 [A,^CA]2[K:bass] [D,D]2 [E,C]>[F,D] | z4 C2 z2 | z8[K:bass] | %23
 [G,C]3 [G,C] z[K:treble] B[K:bass] z G |[M:3/4] C,6 |] %25
V:3
 x8 | x8 | [CE]2 [B,F]2 [CG]2 [CAc]2 | x8 | x8 | x8 | z2 ^F2 G2 [Ge]2 | x8 | B,2 D2 C2 B,2 | %9
 z2 C2 z2 G,2 | x8 | z2 C2 z2 G,2 | x8 | x8 | x8 | x8 |[M:9/8] z2 B- B _B2- B[Af]>[Af] | %17
[M:4/4] x8 | x8 | x8 | x8 | x8 | x8 | x8 |[M:3/4] x6 |] %25
V:4
 x8 | x8 | x8 | x4[K:bass] x4 | x8 | x8 | x2[K:bass] x6 | x8 | x8 | %9
 z2 C,2[K:treble][K:bass] z2 C,2[K:treble] | x8 | z2 C,2[K:treble][K:bass] z2 C,2[K:treble] | x8 | %13
 x8 | x6[K:bass] x2 | x7/2[K:treble] x9/2 |[M:9/8] x7[K:bass] x2 |[M:4/4][K:treble] x8 | x8 | x8 | %20
 x4[K:bass] x4 | [G,EG]2 [G,B,G]2 G2- [G,B,G-]>[G,B,G-] | %22
 [CG-]2 [G,B,G-]>[G,B,G-] [CG]2[K:bass] [F,C]>[F,C] | z4 G,2[K:treble][K:bass] [G,,G,]2 | %24
[M:3/4] x6 |] %25

